/*
##Changing audio interfaces
if we evaluate the line of code

ServerOptions.devices

in our post window we are returned an array of possible ins and outs to use.
to make use of these returned values we can do.

s.options.inDevice =
s.options.outDevice =
*/
